X:108
T:Mower - Parsons Nov 1888
C:Taken down from James Parsons Nov. 1888, by S.B.G.
%%VWML:SBG-1-1-476-1
F:http://www.vwml.org/record/SBG/1/1/476
Z:Original Sibleius Transcription by Martin and Shan Graebe
L:1/4
M:4/4
I:linebreak $
K:D
A | d3/2 d/ A B | G F E G | F3/2 E/ D E | F2 z A | B3/2 A/ G E |$ A3/2 G/ F A | d e d B | A2 z A | 
d3/2 d/ c d | A3/2 G/ F A |$ G F E3/2 E/ | (F2 F) F | G A B3/2 c/ | d e !fermata!d A | 
G F (E !fermata!A/) D/ | D2 z2 |] 1
T:Mower - Parsons Jan 1891
T:Taken down from Jas. Parsons to same words Jan. 1891, by S.B.G.
T:Same air as Haymakers CIX.
L:1/8
M:4/4
I:linebreak $
K:D
E | A2 ^G2 A2 d2 | A3 =G F3 D | (G2 E2) DD ^C2 | D6 FG | A2 B2 c2 d2 |$ A3 G F3 F | 
(F2 E2) D D ^C2 | D6 AB | c2 d2 c2 B2 | c3 B A2 dc |$ B2 A2 F2 G2 | A4 FG | A2 B2 c2 d2 | 
A3 G F3 DE | (F2 E2) D D ^C2 | D6  |] 
T:Mower - Parsons Mar 1891 
T:Taken down from Jas. Parsons by F.W.B. Mch. 1891
L:1/4
M:4/4
I:linebreak $
K:F
F | c3/2 B/ c f | c2 A G/A/ | B G F E | F3 c | c d _e f |$ c3/2 B/ A A | B3/2 G/ F F | F3 B | 
c c f f | =e d c f |$ e c B A | c3 B/B/ | c d/e/ f f | c3/2 B/ A F/G/ | B3/2 G/ F F | F3  |] 
W:CII. Saucy Plough Boy.  old words rewritten. see CXII.b.


